X:1120
T:To the Greenwood gang wi' me.
M:C
L:1/8
Q:1/4=120
Z:Jack Campin * www.campin.me.uk * 2009
K:D
A2 | d>ef>A  B>cd>B|A<F`ED d3  e | f<d d3/e//f// B2 gf |!f2e2 z2
A2 | d>ef>A  B>cd>B|A<F`ED d3  e | fd  d/e/f     A2 f>e|!e4   d2
c>d| e<cB>c  A2 d>e|f<dc>d B3  c | d>e f<b       f<dc>d|!B4   z2
B>c| d>ed<A  B<GF>G|E2 e>d dc`BA |!d<f`A>B       A<FE>F| D4    
             F<AA<d|d>ef2  G<BB<e|He6
e>f|!g<ef<^d e<Be>f|gfed   dc`B>A| d<f`a>b       a>fe>f| d6   |]

